Newaita-dark/.DP/16/weather-few-clouds.svg

<svg xmlns="http://www.w3.org/2000/svg" xmlns:xlink="http://www.w3.org/1999/xlink" width="16px" height="16px" viewBox="0 0 16 16" version="1.1">
<defs>
<linearGradient id="linear0" gradientUnits="userSpaceOnUse" x1="254" y1="233.5" x2="254" y2="254.667007" gradientTransform="matrix(0.03125,0,0,0.03125,0,6.554)">
<stop offset="0" style="stop-color:rgb(0%,0%,0%);stop-opacity:0.275;"/>
<stop offset="1" style="stop-color:rgb(0%,0%,0%);stop-opacity:0;"/>
</linearGradient>
<radialGradient id="radial0" gradientUnits="userSpaceOnUse" cx="450.908997" cy="189.578995" fx="450.908997" fy="189.578995" r="21.167" gradientTransform="matrix(0,-0.03907,-0.07032,0,24.577,31.632)">
<stop offset="0" style="stop-color:rgb(0%,0%,0%);stop-opacity:0.314;"/>
<stop offset="0.222" style="stop-color:rgb(0%,0%,0%);stop-opacity:0.275;"/>
<stop offset="1" style="stop-color:rgb(0%,0%,0%);stop-opacity:0;"/>
</radialGradient>
<radialGradient id="radial1" gradientUnits="userSpaceOnUse" cx="450.908997" cy="189.578995" fx="450.908997" fy="189.578995" r="21.167" gradientTransform="matrix(0,0.03907,0.07032,0,-9.858,-3.93)">
<stop offset="0" style="stop-color:rgb(0%,0%,0%);stop-opacity:0.314;"/>
<stop offset="0.222" style="stop-color:rgb(0%,0%,0%);stop-opacity:0.275;"/>
<stop offset="1" style="stop-color:rgb(0%,0%,0%);stop-opacity:0;"/>
</radialGradient>
<radialGradient id="radial2" gradientUnits="userSpaceOnUse" cx="450.908997" cy="189.578995" fx="450.908997" fy="189.578995" r="21.167" gradientTransform="matrix(0,-0.03907,0.07032,0,-9.858,31.632)">
<stop offset="0" style="stop-color:rgb(0%,0%,0%);stop-opacity:0.314;"/>
<stop offset="0.222" style="stop-color:rgb(0%,0%,0%);stop-opacity:0.275;"/>
<stop offset="1" style="stop-color:rgb(0%,0%,0%);stop-opacity:0;"/>
</radialGradient>
<radialGradient id="radial3" gradientUnits="userSpaceOnUse" cx="450.908997" cy="189.578995" fx="450.908997" fy="189.578995" r="21.167" gradientTransform="matrix(0,0.03907,-0.07032,0,24.577,-3.93)">
<stop offset="0" style="stop-color:rgb(0%,0%,0%);stop-opacity:0.314;"/>
<stop offset="0.222" style="stop-color:rgb(0%,0%,0%);stop-opacity:0.275;"/>
<stop offset="1" style="stop-color:rgb(0%,0%,0%);stop-opacity:0;"/>
</radialGradient>
<linearGradient id="linear1" gradientUnits="userSpaceOnUse" x1="211.667007" y1="170" x2="211.667007" y2="-126.333" gradientTransform="matrix(0.03125,0,0,0.03125,0,5.396)">
<stop offset="0" style="stop-color:rgb(97.647059%,65.882355%,14.509805%);stop-opacity:1;"/>
<stop offset="1" style="stop-color:rgb(98.431373%,75.294119%,17.647059%);stop-opacity:1;"/>
</linearGradient>
<linearGradient id="linear2" gradientUnits="userSpaceOnUse" x1="960" y1="1695.118042" x2="960" y2="815.117981" gradientTransform="matrix(0.00826902,0.000127302,-0.000127302,0.00826902,0,0)">
<stop offset="0" style="stop-color:rgb(39.215687%,70.980394%,96.470588%);stop-opacity:1;"/>
<stop offset="1" style="stop-color:rgb(56.470591%,79.215688%,97.647059%);stop-opacity:1;"/>
</linearGradient>
</defs>
<g id="surface1">
<path style=" stroke:none;fill-rule:nonzero;fill:url(#linear0);" d="M 3.308594 13.851562 L 11.410156 13.851562 L 11.410156 14.511719 L 3.308594 14.511719 Z M 3.308594 13.851562 "/>
<path style=" stroke:none;fill-rule:nonzero;fill:url(#radial0);" d="M 11.410156 13.851562 L 12.734375 13.851562 L 12.734375 13.191406 L 11.410156 13.191406 Z M 11.410156 13.851562 "/>
<path style=" stroke:none;fill-rule:nonzero;fill:url(#radial1);" d="M 3.308594 13.851562 L 1.984375 13.851562 L 1.984375 14.511719 L 3.308594 14.511719 Z M 3.308594 13.851562 "/>
<path style=" stroke:none;fill-rule:nonzero;fill:url(#radial2);" d="M 3.308594 13.851562 L 1.984375 13.851562 L 1.984375 13.191406 L 3.308594 13.191406 Z M 3.308594 13.851562 "/>
<path style=" stroke:none;fill-rule:nonzero;fill:url(#radial3);" d="M 11.410156 13.851562 L 12.734375 13.851562 L 12.734375 14.511719 L 11.410156 14.511719 Z M 11.410156 13.851562 "/>
<path style=" stroke:none;fill-rule:nonzero;fill:url(#linear1);" d="M 6.613281 1.449219 C 9.171875 1.449219 11.246094 3.519531 11.246094 6.078125 C 11.25 8.636719 9.175781 10.710938 6.617188 10.714844 C 4.058594 10.714844 1.984375 8.640625 1.980469 6.085938 C 1.980469 3.527344 4.054688 1.449219 6.613281 1.449219 Z M 6.613281 1.449219 "/>
<path style=" stroke:none;fill-rule:nonzero;fill:rgb(100%,100%,100%);fill-opacity:0.392;" d="M 6.613281 1.449219 C 5.382812 1.449219 4.207031 1.933594 3.335938 2.800781 C 2.46875 3.671875 1.980469 4.851562 1.984375 6.078125 L 1.984375 6.160156 C 2.023438 3.632812 4.085938 1.605469 6.613281 1.613281 C 9.140625 1.605469 11.207031 3.632812 11.246094 6.160156 L 11.246094 6.078125 C 11.25 4.847656 10.761719 3.667969 9.890625 2.800781 C 9.023438 1.933594 7.84375 1.445312 6.613281 1.449219 Z M 6.613281 1.449219 "/>
<path style=" stroke:none;fill-rule:nonzero;fill:rgb(12.941177%,12.941177%,12.941177%);fill-opacity:1;" d="M 6.613281 1.402344 C 5.371094 1.398438 4.179688 1.890625 3.304688 2.769531 C 2.425781 3.644531 1.933594 4.835938 1.9375 6.078125 C 1.933594 7.320312 2.425781 8.511719 3.304688 9.390625 C 4.179688 10.265625 5.371094 10.757812 6.613281 10.757812 C 7.855469 10.761719 9.046875 10.269531 9.925781 9.390625 C 10.804688 8.511719 11.296875 7.320312 11.292969 6.078125 C 11.296875 4.835938 10.804688 3.644531 9.925781 2.765625 C 9.046875 1.890625 7.855469 1.398438 6.613281 1.402344 Z M 6.613281 1.496094 C 7.828125 1.492188 9 1.972656 9.859375 2.832031 C 10.71875 3.691406 11.203125 4.859375 11.199219 6.078125 C 11.203125 7.296875 10.722656 8.464844 9.859375 9.324219 C 9 10.183594 7.832031 10.667969 6.613281 10.664062 C 5.398438 10.664062 4.230469 10.183594 3.371094 9.324219 C 2.511719 8.460938 2.027344 7.292969 2.03125 6.078125 C 2.027344 4.863281 2.511719 3.695312 3.371094 2.835938 C 4.230469 1.976562 5.398438 1.492188 6.613281 1.496094 Z M 6.613281 1.496094 "/>
<path style=" stroke:none;fill-rule:nonzero;fill:rgb(0%,0%,0%);fill-opacity:0.196;" d="M 6.613281 10.710938 C 5.382812 10.710938 4.207031 10.222656 3.335938 9.355469 C 2.46875 8.484375 1.980469 7.308594 1.984375 6.078125 L 1.984375 5.996094 C 2.023438 8.523438 4.085938 10.546875 6.613281 10.542969 C 9.140625 10.550781 11.207031 8.523438 11.246094 5.996094 L 11.246094 6.078125 C 11.25 7.308594 10.761719 8.488281 9.890625 9.355469 C 9.023438 10.226562 7.84375 10.714844 6.613281 10.710938 Z M 6.613281 10.710938 "/>
<path style=" stroke:none;fill-rule:nonzero;fill:url(#linear2);" d="M 10.914062 6.738281 C 9.511719 6.734375 8.230469 7.542969 7.628906 8.8125 C 7.40625 8.753906 7.175781 8.726562 6.945312 8.726562 C 5.847656 8.722656 4.863281 9.402344 4.472656 10.425781 C 3.871094 9.984375 3.070312 9.921875 2.40625 10.261719 C 1.742188 10.601562 1.324219 11.285156 1.324219 12.03125 C 1.324219 13.132812 2.207031 14.015625 3.308594 14.015625 C 3.390625 14.015625 3.46875 14.011719 3.546875 14.003906 C 3.578125 14.011719 3.609375 14.015625 3.636719 14.015625 L 10.914062 14.015625 C 11.878906 14.019531 12.808594 13.636719 13.492188 12.953125 C 14.171875 12.269531 14.554688 11.34375 14.554688 10.378906 C 14.554688 9.414062 14.171875 8.488281 13.492188 7.804688 C 12.808594 7.121094 11.882812 6.738281 10.914062 6.738281 Z M 10.914062 6.738281 "/>
<path style=" stroke:none;fill-rule:nonzero;fill:rgb(100%,100%,100%);fill-opacity:0.392;" d="M 10.914062 6.738281 C 9.511719 6.734375 8.230469 7.542969 7.628906 8.8125 C 7.40625 8.753906 7.175781 8.726562 6.945312 8.726562 C 5.847656 8.722656 4.863281 9.402344 4.472656 10.425781 C 3.871094 9.984375 3.070312 9.921875 2.40625 10.261719 C 1.742188 10.601562 1.324219 11.285156 1.324219 12.03125 L 1.324219 12.113281 C 1.367188 11.050781 2.246094 10.210938 3.308594 10.214844 C 3.742188 10.214844 4.144531 10.351562 4.472656 10.589844 C 4.863281 9.5625 5.847656 8.886719 6.945312 8.890625 C 7.175781 8.890625 7.40625 8.921875 7.628906 8.976562 C 8.230469 7.710938 9.511719 6.902344 10.914062 6.90625 C 12.894531 6.902344 14.511719 8.484375 14.550781 10.460938 C 14.554688 10.433594 14.554688 10.40625 14.554688 10.378906 C 14.558594 9.414062 14.175781 8.488281 13.492188 7.804688 C 12.808594 7.121094 11.882812 6.738281 10.914062 6.738281 Z M 10.914062 6.738281 "/>
<path style=" stroke:none;fill-rule:nonzero;fill:rgb(0%,0%,0%);fill-opacity:0.235;" d="M 14.550781 10.304688 C 14.515625 12.285156 12.894531 13.871094 10.914062 13.867188 L 3.636719 13.867188 C 3.605469 13.867188 3.578125 13.859375 3.546875 13.851562 C 3.46875 13.859375 3.390625 13.867188 3.308594 13.867188 C 2.242188 13.867188 1.363281 13.023438 1.324219 11.957031 L 1.324219 12.03125 C 1.324219 13.132812 2.207031 14.015625 3.308594 14.015625 C 3.390625 14.015625 3.46875 14.011719 3.546875 14.003906 C 3.578125 14.011719 3.605469 14.015625 3.636719 14.015625 L 10.914062 14.015625 C 11.878906 14.019531 12.804688 13.636719 13.488281 12.953125 C 14.171875 12.269531 14.554688 11.34375 14.554688 10.378906 C 14.554688 10.351562 14.554688 10.328125 14.550781 10.304688 Z M 14.550781 10.304688 "/>
<path style="fill:none;stroke-width:0.0937735;stroke-linecap:round;stroke-linejoin:miter;stroke:rgb(12.941177%,12.941177%,12.941177%);stroke-opacity:1;stroke-miterlimit:4;" d="M 10.914062 6.738281 C 9.511719 6.738281 8.230469 7.542969 7.628906 8.8125 C 7.40625 8.753906 7.175781 8.726562 6.945312 8.726562 C 5.847656 8.722656 4.863281 9.402344 4.472656 10.425781 C 3.871094 9.984375 3.070312 9.921875 2.40625 10.261719 C 1.742188 10.601562 1.324219 11.285156 1.324219 12.03125 C 1.324219 13.132812 2.207031 14.015625 3.308594 14.015625 C 3.390625 14.015625 3.46875 14.011719 3.546875 14.003906 C 3.578125 14.011719 3.609375 14.015625 3.636719 14.015625 L 10.914062 14.015625 C 11.878906 14.019531 12.808594 13.636719 13.492188 12.953125 C 14.171875 12.269531 14.554688 11.34375 14.554688 10.378906 C 14.554688 9.414062 14.171875 8.488281 13.492188 7.804688 C 12.808594 7.121094 11.882812 6.738281 10.914062 6.738281 Z M 10.914062 6.738281 "/>
</g>
</svg>

<svg xmlns="http://www.w3.org/2000/svg" width="16pt" height="16pt" viewBox="0 0 16 16"><defs><linearGradient id="a" gradientUnits="userSpaceOnUse" x1="254" y1="233.5" x2="254" y2="254.667" gradientTransform="matrix(.03125 0 0 .03125 0 6.554)"><stop offset="0" stop-opacity=".275"/><stop offset="1" stop-opacity="0"/></linearGradient><radialGradient id="b" gradientUnits="userSpaceOnUse" cx="450.909" cy="189.579" fx="450.909" fy="189.579" r="21.167" gradientTransform="matrix(0 -.03907 -.07032 0 24.577 31.632)"><stop offset="0" stop-opacity=".314"/><stop offset=".222" stop-opacity=".275"/><stop offset="1" stop-opacity="0"/></radialGradient><radialGradient id="c" gradientUnits="userSpaceOnUse" cx="450.909" cy="189.579" fx="450.909" fy="189.579" r="21.167" gradientTransform="matrix(0 .03907 .07032 0 -9.858 -3.93)"><stop offset="0" stop-opacity=".314"/><stop offset=".222" stop-opacity=".275"/><stop offset="1" stop-opacity="0"/></radialGradient><radialGradient id="d" gradientUnits="userSpaceOnUse" cx="450.909" cy="189.579" fx="450.909" fy="189.579" r="21.167" gradientTransform="matrix(0 -.03907 .07032 0 -9.858 31.632)"><stop offset="0" stop-opacity=".314"/><stop offset=".222" stop-opacity=".275"/><stop offset="1" stop-opacity="0"/></radialGradient><radialGradient id="e" gradientUnits="userSpaceOnUse" cx="450.909" cy="189.579" fx="450.909" fy="189.579" r="21.167" gradientTransform="matrix(0 .03907 -.07032 0 24.577 -3.93)"><stop offset="0" stop-opacity=".314"/><stop offset=".222" stop-opacity=".275"/><stop offset="1" stop-opacity="0"/></radialGradient><linearGradient id="f" gradientUnits="userSpaceOnUse" x1="211.667" y1="170" x2="211.667" y2="-126.333" gradientTransform="matrix(.03125 0 0 .03125 0 5.396)"><stop offset="0" stop-color="#f9a825"/><stop offset="1" stop-color="#fbc02d"/></linearGradient><linearGradient id="g" gradientUnits="userSpaceOnUse" x1="960" y1="1695.118" x2="960" y2="815.118" gradientTransform="rotate(.882) scale(.00827)"><stop offset="0" stop-color="#64b5f6"/><stop offset="1" stop-color="#90caf9"/></linearGradient></defs><path d="M3.309 13.852h8.101v.66H3.31zm0 0" fill="url(#a)"/><path d="M11.41 13.852h1.324v-.66H11.41zm0 0" fill="url(#b)"/><path d="M3.309 13.852H1.984v.66H3.31zm0 0" fill="url(#c)"/><path d="M3.309 13.852H1.984v-.66H3.31zm0 0" fill="url(#d)"/><path d="M11.41 13.852h1.324v.66H11.41zm0 0" fill="url(#e)"/><path d="M6.613 1.45a4.63 4.63 0 0 1 4.633 4.628A4.632 4.632 0 1 1 6.613 1.45zm0 0" fill="url(#f)"/><path d="M6.613 1.45a4.619 4.619 0 0 0-4.629 4.628v.082a4.62 4.62 0 0 1 4.63-4.547 4.62 4.62 0 0 1 4.632 4.547v-.082A4.62 4.62 0 0 0 6.613 1.45zm0 0" fill="#fff" fill-opacity=".392"/><path d="M6.613 1.402a4.666 4.666 0 0 0-4.676 4.676 4.67 4.67 0 0 0 4.676 4.68 4.67 4.67 0 0 0 4.68-4.68 4.667 4.667 0 0 0-4.68-4.676zm0 .094A4.572 4.572 0 0 1 11.2 6.078a4.575 4.575 0 0 1-4.586 4.586 4.575 4.575 0 0 1-4.582-4.586 4.571 4.571 0 0 1 4.582-4.582zm0 0" fill="#212121"/><path d="M6.613 10.71a4.622 4.622 0 0 1-4.629-4.632v-.082a4.62 4.62 0 0 0 4.63 4.547 4.62 4.62 0 0 0 4.632-4.547v.082a4.623 4.623 0 0 1-4.633 4.633zm0 0" fill-opacity=".196"/><path d="M10.914 6.738A3.63 3.63 0 0 0 7.63 8.812a2.623 2.623 0 0 0-.684-.085 2.638 2.638 0 0 0-2.472 1.699 1.98 1.98 0 0 0-3.148 1.605c0 1.102.882 1.985 1.984 1.985.082 0 .16-.004.238-.012a.355.355 0 0 0 .09.012h7.277a3.631 3.631 0 0 0 3.64-3.637 3.634 3.634 0 0 0-3.64-3.64zm0 0" fill="url(#g)"/><path d="M10.914 6.738A3.63 3.63 0 0 0 7.63 8.812a2.623 2.623 0 0 0-.684-.085 2.638 2.638 0 0 0-2.472 1.699 1.98 1.98 0 0 0-3.148 1.605v.082a1.978 1.978 0 0 1 1.984-1.898c.433 0 .836.137 1.164.375a2.638 2.638 0 0 1 2.472-1.7 2.8 2.8 0 0 1 .684.087 3.627 3.627 0 0 1 3.285-2.07 3.628 3.628 0 0 1 3.637 3.554c.004-.027.004-.055.004-.082a3.634 3.634 0 0 0-3.64-3.64zm0 0" fill="#fff" fill-opacity=".392"/><path d="M14.55 10.305a3.627 3.627 0 0 1-3.636 3.562H3.637c-.032 0-.059-.008-.09-.015-.078.007-.156.015-.238.015a1.983 1.983 0 0 1-1.985-1.91v.074c0 1.102.883 1.985 1.985 1.985.082 0 .16-.004.238-.012a.355.355 0 0 0 .09.012h7.277a3.631 3.631 0 0 0 3.64-3.637c0-.027 0-.05-.003-.074zm0 0" fill-opacity=".235"/><path d="M10.914 6.738A3.63 3.63 0 0 0 7.63 8.813a2.623 2.623 0 0 0-.684-.086 2.638 2.638 0 0 0-2.472 1.699 1.98 1.98 0 0 0-3.148 1.605c0 1.102.882 1.985 1.984 1.985.082 0 .16-.004.238-.012a.355.355 0 0 0 .09.012h7.277a3.631 3.631 0 0 0 3.64-3.637 3.634 3.634 0 0 0-3.64-3.64zm0 0" fill="none" stroke-width=".09377353" stroke-linecap="round" stroke="#212121"/></svg>
